X:014
U: ~ = !turn!
%%topmargin 3cm
T:The Border Collie
B:Traditional Irish Fiddle Tunes. Randy Miller and Jack Perron.
Z:Transcribed by Ralph Palmer
C:Randy Miller
R:Reel
L:1/8
M:C|
K:A
A "(A"| BF (3.F.F.F BFcF | BF (3.F.F.F AdcA "A)"| BF (3.F.F.F BFBc | dfbf afec :|
A2 ((3cBA) eA ((3cBA) | EABF AFEF | A2 ((3cBA) eA ((3cBA) | fdfb afec |
A2 ((3cBA) eA ((3cBA) | EFAc BABc | dcde fdfb | afec Bcdc |]
x4 x4 "(A"|| BF (3.F.F.F DF (3.F.F.F | CF (3.F.F.F Bcdc "A)"|| x8 x8 [|] x8 x8 [|] x8 x8 [|]
